lib/brands/icons/qzone.svg

<svg xmlns="http://www.w3.org/2000/svg" fill="none" aria-hidden="true" viewBox="0 0 48 48"><g id="qzone-Icon"><path id="bg" fill="white" d="M24 3C12.4172 3 3 12.4172 3 24C3 35.5828 12.4172 45 24 45C35.5828 45 45 35.5828 45 24C45 12.4172 35.5828 3 24 3Z"/><g id="qzone"><path id="star" fill="#FECE48" d="M16.3195 4.18742C16.1796 3.93753 15.8204 3.93753 15.6805 4.18742L11.9636 10.8234C11.9114 10.9165 11.8213 10.9822 11.7168 11.0035L4.2939 12.5106C4.0147 12.5673 3.90408 12.9075 4.09639 13.118L9.22323 18.7299C9.29486 18.8083 9.32904 18.914 9.31691 19.0196L8.44739 26.5905C8.41475 26.8747 8.70493 27.0854 8.96443 26.9658L15.8469 23.796C15.9441 23.7513 16.0559 23.7513 16.1531 23.796L23.0356 26.9658C23.2951 27.0854 23.5852 26.8747 23.5526 26.5905L22.9165 21.0518C22.9165 21.0518 22.8582 20.5443 22.6831 19.0196C22.671 18.914 22.7051 18.8083 22.7768 18.7299L27.9036 13.118C28.0959 12.9075 27.9853 12.5673 27.7061 12.5106L20.2832 11.0035C20.1787 10.9822 20.0886 10.9165 20.0364 10.8234L16.3195 4.18742Z"/><path id="shadow" fill="#F6AD46" d="M15.3281 16.6132C14.8396 15.4634 11.2369 14.4013 9.49658 14.0139C10.84 13.1088 15.8369 13.1679 18.1675 13.3106C18.7666 13.3795 20.2851 13.5433 21.5979 14.0494C21.6709 14.0775 21.6979 14.1651 21.6495 14.2266C20.9305 15.1423 18.3727 17.5127 17.1294 18.6315L16.6104 19.2737C18.6356 19.3858 23.1014 19.5428 24.7623 19.2737C24.2127 19.977 23.3782 20.8026 22.9304 21.2002C22.9609 21.4448 22.9914 21.8423 23.083 22.4845C14.461 23.2429 10.9621 21.6283 10.2599 20.7415C10.3718 20.6294 11.5422 19.6467 15.3281 16.6132Z"/><path id="z" fill="white" d="M15.6334 12.3015C13.3404 12.3015 10.723 13.2274 9.43508 13.8194C9.31833 13.8731 9.35941 14.0372 9.48785 14.0353C14.3872 13.9644 16.6961 14.4559 17.2467 14.8192C17.3047 14.8575 17.2988 14.9348 17.2436 14.9773C15.1006 16.6287 11.2335 19.8154 10.2575 20.6263C10.1758 20.6942 10.2161 20.8245 10.3214 20.8373C16.7001 21.6119 22.4594 20.4054 24.6847 19.3615C24.8042 19.3055 24.7493 19.1477 24.6181 19.1612C21.243 19.5068 17.4825 18.6429 15.9782 18.0933C15.8908 18.0613 15.8737 17.9484 15.9459 17.8895C17.1913 16.8729 19.7087 14.8211 21.1823 13.6297C21.2467 13.5776 21.2415 13.4781 21.1715 13.4339C20.048 12.724 18.7687 12.3015 15.6334 12.3015Z"/></g></g></svg>

<svg xmlns="http://www.w3.org/2000/svg" fill="none" aria-hidden="true" viewBox="0 0 48 48"><path fill="#fff" d="M24 3C12.417 3 3 12.417 3 24s9.417 21 21 21 21-9.417 21-21S35.583 3 24 3Z"/><path fill="#FECE48" d="M16.32 4.187a.366.366 0 0 0-.64 0l-3.716 6.636a.367.367 0 0 1-.247.18l-7.423 1.508a.367.367 0 0 0-.198.607l5.127 5.612a.367.367 0 0 1 .094.29l-.87 7.57a.366.366 0 0 0 .517.376l6.883-3.17a.366.366 0 0 1 .306 0l6.883 3.17c.26.12.55-.091.517-.376l-.637-5.538-.233-2.032a.367.367 0 0 1 .094-.29l5.127-5.612a.367.367 0 0 0-.198-.607l-7.423-1.507a.367.367 0 0 1-.247-.18L16.32 4.186Z"/><path fill="#F6AD46" d="M15.328 16.613c-.488-1.15-4.09-2.212-5.831-2.6 1.343-.904 6.34-.845 8.67-.702.6.069 2.118.232 3.431.738.073.029.1.116.052.178-.72.915-3.277 3.286-4.52 4.404l-.52.643c2.026.112 6.492.269 8.152 0-.55.703-1.384 1.529-1.831 1.926.03.245.06.642.152 1.285-8.622.758-12.12-.857-12.823-1.744.112-.112 1.282-1.094 5.068-4.128Z"/><path fill="#fff" d="M15.634 12.302c-2.293 0-4.91.925-6.199 1.517-.116.054-.075.218.053.216 4.9-.07 7.208.42 7.759.784.058.038.052.116-.003.158-2.143 1.652-6.01 4.838-6.986 5.65a.12.12 0 0 0 .064.21c6.378.775 12.138-.432 14.363-1.476.12-.056.065-.213-.067-.2-3.375.346-7.135-.518-8.64-1.068a.118.118 0 0 1-.032-.203c1.246-1.017 3.763-3.069 5.237-4.26a.12.12 0 0 0-.011-.196c-1.124-.71-2.403-1.132-5.538-1.132Z"/></svg>
